X: 66
T:Dawns y Tylwyth Teg
T:Dance of the Fairies
M:C|
L:1/8
Q:180
S:Nansi Richards
R:Hornpipe
A:Wales
Z:brian_martin12345@yahoo.com
K:G
G/|B2B>GB2B>G|B2B>G A>FD>G|B2B>G c>BA>G|F>GA>BA2A>G|
B2B>GB2B>G|B2B>G A>FD>G|B2B>G c>BA>G|F>GA>FG2G3/2:||
c/|d2d>Be2e>B|c2c>Ad2d>B|c>BA>G F>GA>B|A2A>BA2A>B|
d2d>Be2e>B|c2c>Ad2d>B|c>BA>G F>GA>F|G2B2G3:||
